X:2446
T:Camaronian Reel
R:reel
S:Mick O'Brien, posted  to Ir-trad 8/97 by Bill Reeder
N:1st tune in a set followed by Green Fields of Rossbeigh and Connaught He
N:ers
D:May Morning Dew
Z:Bill Reeder
M:4/4
L:1/8
K:D
"D"A2FA "D"DAFA|"G"GEEE "G"GABd|"D"A2FA "D"DAFA|"G"GBAG "D"FDDF|
"D"A2FA DAFA|"G"GEEE GABd|"D"AAAB "D"ADFA|"G"BdAG "D"FDD2 :||
"D"A2dc dedA|"Bm"(3Bcd ef "Em"gfed|"A"(3cBA eA "A"fAeA|
"A"cdef "A"ga/g/fe|"D"faeg faeg|"D"fdec "G"defg|
"A"afge "D"fdec|"G"dBAG "D"FAdB :||


